static/assets/items/lead.svg

<svg xmlns="http://www.w3.org/2000/svg" viewBox="0 0 32 32"><path d="M0 .5V0h32v32H0V.5M19.5 30q.5 0 .875-.125T21 29.5l.5-.5.5-.5.5-.5.5-.5.5-.5q.25-.25.375-.625t.5-.5q.375-.125.625-.375l.5-.5.5-.5.5-.5.5-.5.5-.5.5-.5.5-.5q.25-.25.375-.625T29 20.5v-1-1-1-1q0-.5-.125-.875T28.5 15l-.5-.5-.5-.5-.5-.5-.5-.5-.5-.5-.5-.5-.5-.5-.5-.5-.5-.5-.5-.5-.5-.5-.5-.5-.5-.5-.5-.5-.5-.5-.5-.5-.5-.5-.5-.5-.5-.5-.5-.5-.5-.5-.5-.5-.5-.5-.5-.5-.5-.5q-.25-.25-.625-.375T14.5 2h-3q-.5 0-.875.125T10 2.5l-.5.5-.5.5-.5.5-.5.5-.5.5-.5.5-.5.5-.5.5-.5.5q-.25.25-.375.625t-.5.5Q4.25 8.25 4 8.5l-.5.5-.5.5-.5.5q-.25.25-.375.625T2 11.5v5q0 .5.125.875T2.5 18l.5.5.5.5.5.5.5.5.5.5.5.5.5.5.5.5.5.5.5.5.5.5.5.5.5.5.5.5.5.5.5.5.5.5.5.5.5.5.5.5.5.5.5.5.5.5q.25.25.625.375T15.5 30h4" fill="none"/><path d="M10 2.5q.25-.25.625-.375T11.5 2h3q.5 0 .875.125T16 2.5l.5.5.5.5.5.5.5.5.5.5.5.5.5.5.5.5.5.5.5.5.5.5.5.5.5.5.5.5.5.5.5.5.5.5.5.5.5.5.5.5.5.5.5.5.5.5.5.5.5.5q.25.25.375.625T29 16.5v4q0 .5-.125.875T28.5 22l-.5.5-.5.5-.5.5-.5.5-.5.5-.5.5-.5.5q-.25.25-.625.375L24 26l.2813-.0938.2812-.0937-.1875.0625q-.1875.0625-.3125.1875l-.125.125L24 26.125l.0625-.0625-.5313-.0313Q23 26 22.5 26h-3q-.5 0-.875-.125T18 25.5l-.5-.5-.5-.5-.5-.5-.5-.5-.5-.5-.5-.5-.5-.5-.5-.5-.5-.5-.5-.5-.5-.5-.5-.5-.5-.5-.5-.5-.5-.5-.5-.5-.5-.5-.5-.5-.5-.5-.5-.5-.5-.5-.5-.5-.5-.5-.5-.5-.5-.5q-.25-.25-.375-.625T5 11.5v-1-1q0-.5-.0313-1.0313l-.0312-.5312L4.875 8l-.0625.0625.125-.125q.125-.125.1875-.3125l.0625-.1875-.0938.2813L5 8l.125-.375Q5.25 7.25 5.5 7l.5-.5.5-.5.5-.5.5-.5.5-.5.5-.5.5-.5.5-.5.5-.5M21.5 22q.5 0 .5-.5t.5-.5.5-.5.5-.5.5-.5.5-.5.5-.5v-1-1q0-.5-.5-.5t-.5-.5-.5-.5-.5-.5-.5-.5-.5-.5-.5-.5-.5-.5-.5-.5-.5-.5-.5-.5-.5-.5-.5-.5-.5-.5-.5-.5-.5-.5-.5-.5-.5-.5-.5-.5-.5-.5-.5-.5h-2q-.5 0-.5.5t-.5.5-.5.5-.5.5-.5.5-.5.5-.5.5v2q0 .5.5.5t.5.5.5.5.5.5.5.5.5.5.5.5.5.5.5.5.5.5.5.5.5.5.5.5.5.5.5.5.5.5.5.5.5.5.5.5.5.5.5.5h2" fill="#ab99d3"/><path d="M12 6.5q0-.5.5-.5h2q.5 0 .5.5t.5.5.5.5.5.5.5.5.5.5.5.5.5.5.5.5.5.5.5.5.5.5.5.5.5.5.5.5.5.5.5.5.5.5.5.5.5.5.5.5v2q0 .5-.5.5t-.5.5-.5.5-.5.5-.5.5-.5.5-.5.5h-2q-.5 0-.5-.5t-.5-.5-.5-.5-.5-.5-.5-.5-.5-.5-.5-.5-.5-.5-.5-.5-.5-.5-.5-.5-.5-.5-.5-.5-.5-.5-.5-.5-.5-.5-.5-.5-.5-.5-.5-.5-.5-.5-.5-.5v-1-1q0-.5.5-.5t.5-.5.5-.5.5-.5.5-.5.5-.5" fill="#8c7fa9"/><path d="M4 8.5q.25-.25.625-.375L5 8l-.2813.0938-.2812.0937.1875-.0625q.1875-.0625.3125-.1875l.125-.125L5 7.875l-.0625.0625.0313.5313Q5 9 5 9.5v2q0 .5.125.875T5.5 13l.5.5.5.5.5.5.5.5.5.5.5.5.5.5.5.5.5.5.5.5.5.5.5.5.5.5.5.5.5.5.5.5.5.5.5.5.5.5.5.5.5.5.5.5.5.5.5.5.5.5q.25.25.625.375T19.5 26h3q.5 0 1.0313.0313l.5312.0312L24.125 26l.0625-.0625-.125.125q-.125.125-.1875.3125l-.0625.1875.0938-.2813L24 26l-.125.375q-.125.375-.375.625l-.5.5-.5.5-.5.5-.5.5-.5.5q-.25.25-.625.375T19.5 30h-4q-.5 0-.875-.125T14 29.5l-.5-.5-.5-.5-.5-.5-.5-.5-.5-.5-.5-.5-.5-.5-.5-.5-.5-.5-.5-.5-.5-.5-.5-.5-.5-.5-.5-.5-.5-.5-.5-.5-.5-.5-.5-.5-.5-.5-.5-.5-.5-.5-.5-.5-.5-.5q-.25-.25-.375-.625T2 16.5v-1-1-1-1-1q0-.5.125-.875T2.5 10l.5-.5.5-.5.5-.5" fill="#6f687e"/></svg>

<?xml version="1.0" encoding="UTF-8" standalone="no"?>
<!-- Created with Inkscape (http://www.inkscape.org/) -->

<svg
   xmlns:dc="http://purl.org/dc/elements/1.1/"
   xmlns:cc="http://creativecommons.org/ns#"
   xmlns:rdf="http://www.w3.org/1999/02/22-rdf-syntax-ns#"
   xmlns:svg="http://www.w3.org/2000/svg"
   xmlns="http://www.w3.org/2000/svg"
   xmlns:sodipodi="http://sodipodi.sourceforge.net/DTD/sodipodi-0.dtd"
   xmlns:inkscape="http://www.inkscape.org/namespaces/inkscape"
   version="1.1"
   id="svg5267"
   width="32"
   height="32"
   viewBox="0 0 32 32"
   sodipodi:docname="lead.svg"
   inkscape:version="0.92.5 (2060ec1f9f, 2020-04-08)">
  <metadata
     id="metadata5273">
    <rdf:RDF>
      <cc:Work
         rdf:about="">
        <dc:format>image/svg+xml</dc:format>
        <dc:type
           rdf:resource="http://purl.org/dc/dcmitype/StillImage" />
        <dc:title></dc:title>
      </cc:Work>
    </rdf:RDF>
  </metadata>
  <defs
     id="defs5271" />
  <sodipodi:namedview
     pagecolor="#ffffff"
     bordercolor="#666666"
     borderopacity="1"
     objecttolerance="10"
     gridtolerance="10"
     guidetolerance="10"
     inkscape:pageopacity="0"
     inkscape:pageshadow="2"
     inkscape:window-width="1366"
     inkscape:window-height="705"
     id="namedview5269"
     showgrid="false"
     inkscape:zoom="7.375"
     inkscape:cx="16"
     inkscape:cy="16"
     inkscape:window-x="-8"
     inkscape:window-y="-8"
     inkscape:window-maximized="1"
     inkscape:current-layer="svg5267" />
  <g
     id="g5828">
    <path
       style="fill:#000000;fill-opacity:0"
       d="M 0,0.5 V 0 H 0.5 1 1.5 2 2.5 3 3.5 4 4.5 5 5.5 6 6.5 7 7.5 8 8.5 9 9.5 10 10.5 11 11.5 12 12.5 13 13.5 14 14.5 15 15.5 16 16.5 17 17.5 18 18.5 19 19.5 20 20.5 21 21.5 22 22.5 23 23.5 24 24.5 25 25.5 26 26.5 27 27.5 28 28.5 29 29.5 30 30.5 31 31.5 32 V 0.5 1 1.5 2 2.5 3 3.5 4 4.5 5 5.5 6 6.5 7 7.5 8 8.5 9 9.5 10 10.5 11 11.5 12 12.5 13 13.5 14 14.5 15 15.5 16 16.5 17 17.5 18 18.5 19 19.5 20 20.5 21 21.5 22 22.5 23 23.5 24 24.5 25 25.5 26 26.5 27 27.5 28 28.5 29 29.5 30 30.5 31 31.5 32 H 31.5 31 30.5 30 29.5 29 28.5 28 27.5 27 26.5 26 25.5 25 24.5 24 23.5 23 22.5 22 21.5 21 20.5 20 19.5 19 18.5 18 17.5 17 16.5 16 15.5 15 14.5 14 13.5 13 12.5 12 11.5 11 10.5 10 9.5 9 8.5 8 7.5 7 6.5 6 5.5 5 4.5 4 3.5 3 2.5 2 1.5 1 0.5 0 V 31.5 31 30.5 30 29.5 29 28.5 28 27.5 27 26.5 26 25.5 25 24.5 24 23.5 23 22.5 22 21.5 21 20.5 20 19.5 19 18.5 18 17.5 17 16.5 16 15.5 15 14.5 14 13.5 13 12.5 12 11.5 11 10.5 10 9.5 9 8.5 8 7.5 7 6.5 6 5.5 5 4.5 4 3.5 3 2.5 2 1.5 1 0.5 M 19.5,30 Q 20,30 20.375,29.875 20.75,29.75 21,29.5 21.25,29.25 21.5,29 21.75,28.75 22,28.5 22.25,28.25 22.5,28 22.75,27.75 23,27.5 23.25,27.25 23.5,27 23.75,26.75 23.875,26.375 24,26 24.375,25.875 24.75,25.75 25,25.5 25.25,25.25 25.5,25 25.75,24.75 26,24.5 26.25,24.25 26.5,24 26.75,23.75 27,23.5 27.25,23.25 27.5,23 27.75,22.75 28,22.5 28.25,22.25 28.5,22 28.75,21.75 28.875,21.375 29,21 29,20.5 q 0,-0.5 0,-1 0,-0.5 0,-1 0,-0.5 0,-1 0,-0.5 0,-1 Q 29,16 28.875,15.625 28.75,15.25 28.5,15 28.25,14.75 28,14.5 27.75,14.25 27.5,14 27.25,13.75 27,13.5 26.75,13.25 26.5,13 26.25,12.75 26,12.5 25.75,12.25 25.5,12 25.25,11.75 25,11.5 24.75,11.25 24.5,11 24.25,10.75 24,10.5 23.75,10.25 23.5,10 23.25,9.75 23,9.5 22.75,9.25 22.5,9 22.25,8.75 22,8.5 21.75,8.25 21.5,8 21.25,7.75 21,7.5 20.75,7.25 20.5,7 20.25,6.75 20,6.5 19.75,6.25 19.5,6 19.25,5.75 19,5.5 18.75,5.25 18.5,5 18.25,4.75 18,4.5 17.75,4.25 17.5,4 17.25,3.75 17,3.5 16.75,3.25 16.5,3 16.25,2.75 16,2.5 15.75,2.25 15.375,2.125 15,2 14.5,2 14,2 13.5,2 13,2 12.5,2 12,2 11.5,2 11,2 10.625,2.125 10.25,2.25 10,2.5 9.75,2.75 9.5,3 9.25,3.25 9,3.5 8.75,3.75 8.5,4 8.25,4.25 8,4.5 7.75,4.75 7.5,5 7.25,5.25 7,5.5 6.75,5.75 6.5,6 6.25,6.25 6,6.5 5.75,6.75 5.5,7 5.25,7.25 5.125,7.625 5,8 4.625,8.125 4.25,8.25 4,8.5 3.75,8.75 3.5,9 3.25,9.25 3,9.5 2.75,9.75 2.5,10 2.25,10.25 2.125,10.625 2,11 2,11.5 q 0,0.5 0,1 0,0.5 0,1 0,0.5 0,1 0,0.5 0,1 0,0.5 0,1 Q 2,17 2.125,17.375 2.25,17.75 2.5,18 q 0.25,0.25 0.5,0.5 0.25,0.25 0.5,0.5 0.25,0.25 0.5,0.5 0.25,0.25 0.5,0.5 0.25,0.25 0.5,0.5 0.25,0.25 0.5,0.5 0.25,0.25 0.5,0.5 0.25,0.25 0.5,0.5 0.25,0.25 0.5,0.5 0.25,0.25 0.5,0.5 0.25,0.25 0.5,0.5 0.25,0.25 0.5,0.5 0.25,0.25 0.5,0.5 0.25,0.25 0.5,0.5 0.25,0.25 0.5,0.5 0.25,0.25 0.5,0.5 0.25,0.25 0.5,0.5 0.25,0.25 0.5,0.5 0.25,0.25 0.5,0.5 0.25,0.25 0.5,0.5 0.25,0.25 0.5,0.5 0.25,0.25 0.5,0.5 0.25,0.25 0.5,0.5 0.25,0.25 0.625,0.375 Q 15,30 15.5,30 q 0.5,0 1,0 0.5,0 1,0 0.5,0 1,0 0.5,0 1,0"
       id="path5820"
       inkscape:connector-curvature="0" />
    <path
       style="fill:#ab99d3;fill-opacity:1"
       d="M 10,2.5 Q 10.25,2.25 10.625,2.125 11,2 11.5,2 q 0.5,0 1,0 0.5,0 1,0 0.5,0 1,0 Q 15,2 15.375,2.125 15.75,2.25 16,2.5 q 0.25,0.25 0.5,0.5 0.25,0.25 0.5,0.5 0.25,0.25 0.5,0.5 0.25,0.25 0.5,0.5 0.25,0.25 0.5,0.5 0.25,0.25 0.5,0.5 0.25,0.25 0.5,0.5 0.25,0.25 0.5,0.5 0.25,0.25 0.5,0.5 0.25,0.25 0.5,0.5 0.25,0.25 0.5,0.5 0.25,0.25 0.5,0.5 0.25,0.25 0.5,0.5 0.25,0.25 0.5,0.5 0.25,0.25 0.5,0.5 0.25,0.25 0.5,0.5 0.25,0.25 0.5,0.5 0.25,0.25 0.5,0.5 0.25,0.25 0.5,0.5 0.25,0.25 0.5,0.5 0.25,0.25 0.5,0.5 0.25,0.25 0.5,0.5 0.25,0.25 0.5,0.5 0.25,0.25 0.5,0.5 0.25,0.25 0.5,0.5 0.25,0.25 0.375,0.625 Q 29,16 29,16.5 q 0,0.5 0,1 0,0.5 0,1 0,0.5 0,1 0,0.5 0,1 0,0.5 -0.125,0.875 Q 28.75,21.75 28.5,22 28.25,22.25 28,22.5 27.75,22.75 27.5,23 27.25,23.25 27,23.5 26.75,23.75 26.5,24 26.25,24.25 26,24.5 25.75,24.75 25.5,25 25.25,25.25 25,25.5 24.75,25.75 24.375,25.875 L 24,26 24.28125,25.90625 24.5625,25.8125 24.375,25.875 q -0.1875,0.0625 -0.3125,0.1875 l -0.125,0.125 L 24,26.125 24.0625,26.0625 23.53125,26.03125 Q 23,26 22.5,26 q -0.5,0 -1,0 -0.5,0 -1,0 -0.5,0 -1,0 Q 19,26 18.625,25.875 18.25,25.75 18,25.5 17.75,25.25 17.5,25 17.25,24.75 17,24.5 16.75,24.25 16.5,24 16.25,23.75 16,23.5 15.75,23.25 15.5,23 15.25,22.75 15,22.5 14.75,22.25 14.5,22 14.25,21.75 14,21.5 13.75,21.25 13.5,21 13.25,20.75 13,20.5 12.75,20.25 12.5,20 12.25,19.75 12,19.5 11.75,19.25 11.5,19 11.25,18.75 11,18.5 10.75,18.25 10.5,18 10.25,17.75 10,17.5 9.75,17.25 9.5,17 9.25,16.75 9,16.5 8.75,16.25 8.5,16 8.25,15.75 8,15.5 7.75,15.25 7.5,15 7.25,14.75 7,14.5 6.75,14.25 6.5,14 6.25,13.75 6,13.5 5.75,13.25 5.5,13 5.25,12.75 5.125,12.375 5,12 5,11.5 5,11 5,10.5 5,10 5,9.5 5,9 4.96875,8.46875 L 4.9375,7.9375 4.875,8 4.8125,8.0625 4.9375,7.9375 Q 5.0625,7.8125 5.125,7.625 L 5.1875,7.4375 5.09375,7.71875 5,8 5.125,7.625 Q 5.25,7.25 5.5,7 5.75,6.75 6,6.5 6.25,6.25 6.5,6 6.75,5.75 7,5.5 7.25,5.25 7.5,5 7.75,4.75 8,4.5 8.25,4.25 8.5,4 8.75,3.75 9,3.5 9.25,3.25 9.5,3 9.75,2.75 10,2.5 M 21.5,22 Q 22,22 22,21.5 22,21 22.5,21 23,21 23,20.5 23,20 23.5,20 24,20 24,19.5 24,19 24.5,19 25,19 25,18.5 25,18 25,17.5 25,17 25,16.5 25,16 24.5,16 24,16 24,15.5 24,15 23.5,15 23,15 23,14.5 23,14 22.5,14 22,14 22,13.5 22,13 21.5,13 21,13 21,12.5 21,12 20.5,12 20,12 20,11.5 20,11 19.5,11 19,11 19,10.5 19,10 18.5,10 18,10 18,9.5 18,9 17.5,9 17,9 17,8.5 17,8 16.5,8 16,8 16,7.5 16,7 15.5,7 15,7 15,6.5 15,6 14.5,6 14,6 13.5,6 13,6 12.5,6 12,6 12,6.5 12,7 11.5,7 11,7 11,7.5 11,8 10.5,8 10,8 10,8.5 10,9 9.5,9 9,9 9,9.5 q 0,0.5 0,1 0,0.5 0,1 0,0.5 0.5,0.5 0.5,0 0.5,0.5 0,0.5 0.5,0.5 0.5,0 0.5,0.5 0,0.5 0.5,0.5 0.5,0 0.5,0.5 0,0.5 0.5,0.5 0.5,0 0.5,0.5 0,0.5 0.5,0.5 0.5,0 0.5,0.5 0,0.5 0.5,0.5 0.5,0 0.5,0.5 0,0.5 0.5,0.5 0.5,0 0.5,0.5 0,0.5 0.5,0.5 0.5,0 0.5,0.5 0,0.5 0.5,0.5 0.5,0 0.5,0.5 0,0.5 0.5,0.5 0.5,0 0.5,0.5 0,0.5 0.5,0.5 0.5,0 1,0 0.5,0 1,0"
       id="path5822"
       inkscape:connector-curvature="0" />
    <path
       style="fill:#8c7fa9;fill-opacity:1"
       d="M 12,6.5 Q 12,6 12.5,6 13,6 13.5,6 14,6 14.5,6 15,6 15,6.5 15,7 15.5,7 16,7 16,7.5 16,8 16.5,8 17,8 17,8.5 17,9 17.5,9 18,9 18,9.5 q 0,0.5 0.5,0.5 0.5,0 0.5,0.5 0,0.5 0.5,0.5 0.5,0 0.5,0.5 0,0.5 0.5,0.5 0.5,0 0.5,0.5 0,0.5 0.5,0.5 0.5,0 0.5,0.5 0,0.5 0.5,0.5 0.5,0 0.5,0.5 0,0.5 0.5,0.5 0.5,0 0.5,0.5 0,0.5 0.5,0.5 0.5,0 0.5,0.5 0,0.5 0,1 0,0.5 0,1 Q 25,19 24.5,19 24,19 24,19.5 24,20 23.5,20 23,20 23,20.5 23,21 22.5,21 22,21 22,21.5 22,22 21.5,22 21,22 20.5,22 20,22 19.5,22 19,22 19,21.5 19,21 18.5,21 18,21 18,20.5 18,20 17.5,20 17,20 17,19.5 17,19 16.5,19 16,19 16,18.5 16,18 15.5,18 15,18 15,17.5 15,17 14.5,17 14,17 14,16.5 14,16 13.5,16 13,16 13,15.5 13,15 12.5,15 12,15 12,14.5 12,14 11.5,14 11,14 11,13.5 11,13 10.5,13 10,13 10,12.5 10,12 9.5,12 9,12 9,11.5 9,11 9,10.5 9,10 9,9.5 9,9 9.5,9 10,9 10,8.5 10,8 10.5,8 11,8 11,7.5 11,7 11.5,7 12,7 12,6.5"
       id="path5824"
       inkscape:connector-curvature="0" />
    <path
       style="fill:#6f687e;fill-opacity:1"
       d="M 4,8.5 Q 4.25,8.25 4.625,8.125 L 5,8 4.71875,8.09375 4.4375,8.1875 4.625,8.125 Q 4.8125,8.0625 4.9375,7.9375 L 5.0625,7.8125 5,7.875 4.9375,7.9375 4.96875,8.46875 Q 5,9 5,9.5 5,10 5,10.5 5,11 5,11.5 5,12 5.125,12.375 5.25,12.75 5.5,13 q 0.25,0.25 0.5,0.5 0.25,0.25 0.5,0.5 0.25,0.25 0.5,0.5 0.25,0.25 0.5,0.5 0.25,0.25 0.5,0.5 0.25,0.25 0.5,0.5 0.25,0.25 0.5,0.5 0.25,0.25 0.5,0.5 0.25,0.25 0.5,0.5 0.25,0.25 0.5,0.5 0.25,0.25 0.5,0.5 0.25,0.25 0.5,0.5 0.25,0.25 0.5,0.5 0.25,0.25 0.5,0.5 0.25,0.25 0.5,0.5 0.25,0.25 0.5,0.5 0.25,0.25 0.5,0.5 0.25,0.25 0.5,0.5 0.25,0.25 0.5,0.5 0.25,0.25 0.5,0.5 0.25,0.25 0.5,0.5 0.25,0.25 0.5,0.5 0.25,0.25 0.5,0.5 0.25,0.25 0.5,0.5 0.25,0.25 0.5,0.5 0.25,0.25 0.625,0.375 Q 19,26 19.5,26 q 0.5,0 1,0 0.5,0 1,0 0.5,0 1,0 0.5,0 1.03125,0.03125 L 24.0625,26.0625 24.125,26 l 0.0625,-0.0625 -0.125,0.125 q -0.125,0.125 -0.1875,0.3125 L 23.8125,26.5625 23.90625,26.28125 24,26 23.875,26.375 Q 23.75,26.75 23.5,27 23.25,27.25 23,27.5 22.75,27.75 22.5,28 22.25,28.25 22,28.5 21.75,28.75 21.5,29 21.25,29.25 21,29.5 20.75,29.75 20.375,29.875 20,30 19.5,30 q -0.5,0 -1,0 -0.5,0 -1,0 -0.5,0 -1,0 -0.5,0 -1,0 Q 15,30 14.625,29.875 14.25,29.75 14,29.5 13.75,29.25 13.5,29 13.25,28.75 13,28.5 12.75,28.25 12.5,28 12.25,27.75 12,27.5 11.75,27.25 11.5,27 11.25,26.75 11,26.5 10.75,26.25 10.5,26 10.25,25.75 10,25.5 9.75,25.25 9.5,25 9.25,24.75 9,24.5 8.75,24.25 8.5,24 8.25,23.75 8,23.5 7.75,23.25 7.5,23 7.25,22.75 7,22.5 6.75,22.25 6.5,22 6.25,21.75 6,21.5 5.75,21.25 5.5,21 5.25,20.75 5,20.5 4.75,20.25 4.5,20 4.25,19.75 4,19.5 3.75,19.25 3.5,19 3.25,18.75 3,18.5 2.75,18.25 2.5,18 2.25,17.75 2.125,17.375 2,17 2,16.5 2,16 2,15.5 2,15 2,14.5 2,14 2,13.5 2,13 2,12.5 2,12 2,11.5 2,11 2.125,10.625 2.25,10.25 2.5,10 2.75,9.75 3,9.5 3.25,9.25 3.5,9 3.75,8.75 4,8.5"
       id="path5826"
       inkscape:connector-curvature="0" />
  </g>
</svg>
